packages/assets/application-icons/12.Star.svg

<?xml version="1.0" encoding="UTF-8"?>
<svg width="24px" height="24px" viewBox="0 0 24 24" version="1.1" xmlns="http://www.w3.org/2000/svg" xmlns:xlink="http://www.w3.org/1999/xlink">
    <title>12.Star</title>
    <g id="Page-1" stroke="none" stroke-width="1" fill="none" fill-rule="evenodd">
        <g id="Artboard" transform="translate(-235.000000, -135.000000)" fill="#000000">
            <g id="12.Star" transform="translate(235.000000, 135.000000)">
                <path d="M14.4477646,9.29049747 L12.6934939,3.53409884 C12.4671363,2.82196705 11.5051169,2.82196705 11.2787594,3.53409884 L9.52448858,9.29049747 L3.75237183,9.29049747 C3.01670989,9.29049747 2.73376299,10.2400065 3.29965679,10.6554167 L7.99657532,14.2160757 L6.18571516,19.9724743 C5.95935765,20.6846061 6.75160896,21.2780493 7.31750276,20.862639 L12.0144213,17.3019801 L16.6547504,20.862639 C17.2206442,21.2780493 18.0128956,20.6846061 17.786538,19.9724743 L16.0322673,14.2160757 L20.6725964,10.6554167 C21.2950796,10.2400065 20.9555433,9.29049747 20.2764708,9.29049747 L14.4477646,9.29049747 Z" id="Star"></path>
            </g>
        </g>
    </g>
</svg>

<svg width="24" height="24" viewBox="0 0 24 24" xmlns="http://www.w3.org/2000/svg"><path d="m14.448 9.29-1.755-5.756a.735.735 0 0 0-1.414 0L9.524 9.29H3.752c-.735 0-1.018.95-.452 1.365l4.697 3.561-1.811 5.756c-.227.713.566 1.306 1.132.89l4.696-3.56 4.64 3.56c.567.416 1.359-.177 1.133-.89l-1.755-5.756 4.64-3.56c.623-.416.284-1.366-.396-1.366h-5.828Z" fill="#000" fill-rule="evenodd"/></svg>
